X:2976
T:Mayim
C:anon.
O:Israel?
N:Lyrics based on Isaiah 12:3
Z:Transcribed by Frank Nordberg - http://www.musicaviva.com
F:http://abc.musicaviva.com/tunes/israel/mayim.abc
M:2/4
L:1/8
Q:1/4=110
K:Dm
{D}DE (F/E/)D|FG (A>G)|FA cB|~AG A2|
w:Us-hav-tem may--im be-sa--son mi-ma'y-nei ha-ye-shu-a.
{D}DE (F/E/)D|FG A2|dd cc|Acd2|
w:Us-hav-tem may--im be-sa-son mi-ma'y-nei ha-ye-shu-a.
dd dd|dd dd|z d cc|Acd2|
w:May-im, may-im, may-im, may-im hei may-im be-sa-son.
dd dd|dd dd|z d cc|AG A2|
w:May-im, may-im, may-im,  may-im hei may-im be-sa-son.
c2 c2|c2 c2|cc (B/A/)G|cc (B/A/)G|FG (A/B/)A|
w:Hei, hei, hei, hei, may-im, may--im, may-im, may--im, may-im, may--im
~GF c2|cc (B/A/)G|cc (B/A/)G|AA (F/E/)D|FED2|]
w:be-sa-son. May-im, may--im, may-im, may--im, may-im, may--im be-sa-son.
W:
W:Ushavtem mayim besason mima'ynei hayeshua.
W:Ushavtem mayim besason mima'ynei hayeshua.
W:  Mayim, mayim, mayim, mayim hei mayim besason.
W:  Mayim, mayim, mayim,  mayim hei mayim besason.
W:  Hei, hei, hei, hei,
W:  mayim, mayim, mayim, mayim, mayim, mayim besason.
W:  Mayim, mayim, mayim, mayim, mayim, mayim besason.
W:
W:
W:  From Musica Viva - http://www.musicaviva.com
W:  the Internet center for free sheet music downloads.


